!!!OTL: Um Frauen willen
!!!ARE: Europa, Mitteleuropa, Deutschland
!!!SCT: A0121
!!!YEM: Copyright 1995, estate of Helmut Schaffrath.
**kern
*ICvox
*Ivox
!! Mixed meters:  4/2; 6/2
*M6/2
*k[f#]
*G:
{2g
=1
2g
2g
2a
2b
=2
1cc
1cc
2r}
{2dd
=3
1ee
2ee
1dd
2dd
=4
2.cc
4dd
4ee
4cc
1dd}
{2g
=5
2a
2dd
2dd
1cc
2dd
=6
2.b
4a
1g
2r}
{2dd
=7
2cc
2a
2b
1cc
2b-
=8
2b-
4a
4g
1a
2r}
{2g
=9
2a
2dd
2dd
2cc
2cc
2dd
=10
2.cc
4b
1a
2r}
{2cc
=11
2a
2a
2g
1fn
2g
=12
*M4/2
1a
2r}
{2g
=13
*M6/2
1g
2b
2cc
2a
2a
=14
4g
4f#
4g
4a
2b
1a}
{2b
=15
2cc
2dd
2ee
1dd}
{2dd
=16
2dd
2b
2cc
1dd
2cc
=17
2cc
4b
4a
1.g}
==
!!!AGN: Romanze, Ballade, Lied
!! Souterliedekens 1540 ad Ps. 36.
!!!ONB: ESAC (Essen Associative Code) Database: ALTDEU
!!!AMT: irregular
!!!AIN: vox
!!!EED: Helmut Schaffrath
!!!EEV: 1.0
*-
